src/assets/icons/letters,fancy,serif-s.svg

<svg width="48" height="48" viewBox="0 0 48 48" fill="none" xmlns="http://www.w3.org/2000/svg">
<path d="M13.4534 27.31H14.9354C15.29 29.7167 16.2527 31.6167 17.8234 33.01C19.394 34.378 21.332 35.062 23.6374 35.062C24.5747 35.062 25.436 34.948 26.2214 34.72C27.0067 34.492 27.678 34.1753 28.2354 33.77C28.7927 33.3393 29.2234 32.8453 29.5274 32.288C29.8314 31.7053 29.9834 31.0593 29.9834 30.35C29.9834 29.742 29.882 29.2227 29.6794 28.792C29.502 28.336 29.1474 27.9053 28.6154 27.5C28.0834 27.0693 27.3487 26.6387 26.4114 26.208C25.4994 25.7773 24.3087 25.2833 22.8394 24.726C19.8754 23.586 17.684 22.2687 16.2654 20.774C14.8467 19.254 14.1374 17.468 14.1374 15.416C14.1374 14.2253 14.3654 13.136 14.8214 12.148C15.2774 11.16 15.9107 10.3113 16.7214 9.602C17.5574 8.89267 18.5454 8.348 19.6854 7.968C20.8507 7.56267 22.13 7.36 23.5234 7.36C24.8154 7.36 26.0314 7.56267 27.1714 7.968C28.3114 8.37333 29.4387 8.98133 30.5534 9.792L31.2374 7.892H32.1494L32.5674 16.1H31.0854C30.4774 14.0227 29.5274 12.4393 28.2354 11.35C26.9434 10.2353 25.4487 9.678 23.7514 9.678C22.1807 9.678 20.9014 10.0707 19.9134 10.856C18.9507 11.616 18.4694 12.604 18.4694 13.82C18.4694 14.352 18.558 14.8333 18.7354 15.264C18.9127 15.6693 19.242 16.062 19.7234 16.442C20.2047 16.822 20.8634 17.2147 21.6994 17.62C22.5354 18 23.612 18.4307 24.9294 18.912C26.7027 19.596 28.21 20.2927 29.4514 21.002C30.718 21.686 31.744 22.4333 32.5294 23.244C33.34 24.0293 33.9354 24.8653 34.3154 25.752C34.6954 26.6387 34.8854 27.614 34.8854 28.678C34.8854 29.97 34.6067 31.148 34.0494 32.212C33.492 33.276 32.7067 34.188 31.6934 34.948C30.7054 35.708 29.5147 36.3033 28.1214 36.734C26.7534 37.1647 25.2334 37.38 23.5614 37.38C22.0414 37.38 20.6734 37.1773 19.4574 36.772C18.2414 36.3413 16.9874 35.6573 15.6954 34.72L14.9354 37H14.0234L13.4534 27.31Z" fill="black"/>
</svg>

<svg xmlns="http://www.w3.org/2000/svg" width="48" height="48" fill="none" viewBox="0 0 48 48">
  <path fill="#000" d="M13.453 27.31h1.482c.355 2.407 1.318 4.307 2.888 5.7 1.571 1.368 3.509 2.052 5.814 2.052.938 0 1.799-.114 2.584-.342.786-.228 1.457-.545 2.014-.95.558-.43.988-.925 1.292-1.482a4.126 4.126 0 00.456-1.938c0-.608-.101-1.127-.304-1.558-.177-.456-.532-.887-1.064-1.292-.532-.43-1.266-.861-2.204-1.292-.912-.43-2.102-.925-3.572-1.482-2.964-1.14-5.155-2.457-6.574-3.952-1.418-1.52-2.128-3.306-2.128-5.358 0-1.19.228-2.28.684-3.268a7.544 7.544 0 011.9-2.546c.836-.71 1.824-1.254 2.964-1.634 1.166-.405 2.445-.608 3.838-.608 1.292 0 2.508.203 3.648.608 1.14.405 2.268 1.013 3.382 1.824l.684-1.9h.912l.418 8.208h-1.482c-.608-2.077-1.558-3.66-2.85-4.75-1.292-1.115-2.786-1.672-4.484-1.672-1.57 0-2.85.393-3.838 1.178-.962.76-1.444 1.748-1.444 2.964 0 .532.089 1.013.266 1.444.178.405.507.798.988 1.178.482.38 1.14.773 1.976 1.178.836.38 1.913.81 3.23 1.292 1.774.684 3.281 1.38 4.522 2.09 1.267.684 2.293 1.431 3.078 2.242.811.785 1.406 1.621 1.786 2.508.38.887.57 1.862.57 2.926 0 1.292-.278 2.47-.836 3.534-.557 1.064-1.342 1.976-2.356 2.736-.988.76-2.178 1.355-3.572 1.786-1.368.43-2.888.646-4.56.646-1.52 0-2.888-.203-4.104-.608-1.216-.43-2.47-1.115-3.762-2.052l-.76 2.28h-.912l-.57-9.69z"/>
</svg>
